PortableApps/LibreOfficePortable/App/libreoffice/help/media/icon-themes/cmd/lc_rejectalltrackedchanges.svg

<svg viewBox="0 0 24 24" xmlns="http://www.w3.org/2000/svg"><path d="m5 3v10.501953l1.0078125 1.013672 2.1582031-2.212891c.3820854-.392867 1.009183-.405062 1.40625-.027343l2.0078124 1.912109c.392576.373746.415967.992204.052734 1.394531l-2.1542964 2.386719 2.2343754 2.275391c.192589.195359.287689.450695.287109.705078-.001774-.256317.094572-.514209.289062-.710938l2.234376-2.257812-2.240235-2.300781c-.387659-.399514-.374491-1.038672.029297-1.421876l2.089844-1.982421c.182534-.173636.423875-.271991.675781-.275391.270212-.003099.530175.103285.720703.294922l2.208984 2.220703.992188-1.017578v-6.7695314l-4-3.7285156zm7 17.951172c-.00007.016693-.008865.032155-.009766.048828h.019532c-.000977-.016653-.009619-.032151-.009766-.048828z" fill="#fff"/><path d="m5 2c-.554 0-1 .446-1 1v9.498047l1 1.003906v-10.501953h9v4c0 .554.446 1 1 1h4v5.498047l1-1.025391v-1.582031-3.640625-.2089844c0-.4506799.098038-.4254121-.605469-1.0664062l-3.30664-3.2382813c-.709525-.7368575-.710169-.7363281-1.09375-.7363281h-.332032-.662109zm2.5 3c-.277 0-.5.223-.5.5s.223.5.5.5h4c.277 0 .5-.223.5-.5s-.223-.5-.5-.5zm0 4c-.277 0-.5.223-.5.5s.223.5.5.5h2c.277 0 .5-.223.5-.5s-.223-.5-.5-.5zm4.490234 12c-.01286.238037-.101243.472784-.283203.654297l-.347656.345703h1.291016l-.351563-.345703c-.183871-.180909-.275072-.415643-.289062-.654297zm-5.9785152.367188-.5996094.632812h1.1992187zm12.0000002 0-.59961.632812h1.199219z" fill="#808080"/><path d="m15 7h4l-4-4z" fill="#fff"/><path d="m3.0898438 13-2.0898438 1.982422 2.9257812 3.003906-2.9257812 2.955078 2.0898438 2.058594 2.921875-3.087891 2.9277343 3.087891 2.0605469-2.054688-2.8945312-2.947265 2.7851562-3.085938-2.0078125-1.912109-2.8671875 2.941406zm12.0000002 0-2.089844 1.982422 2.925781 3.003906-2.925781 2.955078 2.089844 2.058594 2.921875-3.087891 2.927734 3.087891 2.060547-2.054688-2.894531-2.947265 2.785156-3.085938-2.007813-1.912109-2.867187 2.941406z" fill="#e68497"/><path d="m12.5 9c-.277 0-.5.223-.5.5s.223.5.5.5h4c.277 0 .5-.223.5-.5s-.223-.5-.5-.5zm-5 3c-.277 0-.5.223-.5.5 0 .272872.2170322.491536.4882812.498047l.6777344-.695313c.1910427-.196433.4430972-.297793.6972656-.302734zm1.3632812 0c.2541685-.004941.5104509.086531.7089844.275391l.7617184.724609h3.166016c.062325 0 .120849-.014503.175781-.035156l.285157-.269532c.000242-.000575-.000241-.001376 0-.001953.024776-.059398.039062-.124775.039062-.193359 0-.277-.223-.5-.5-.5zm.6464844 6 .9804684 1h1.023438c.269958 0 .486328-.21637.486328-.486328v-.027344c0-.269962-.21637-.486328-.486328-.486328z" fill="#d65532"/></svg>

<svg viewBox="0 0 24 24" xmlns="http://www.w3.org/2000/svg">
  <path
     style="fill:#ffffff"
     d="M 5 3 L 5 13.501953 L 6.0078125 14.515625 L 8.1660156 12.302734 C 8.548101 11.909867 9.1751986 11.897672 9.5722656 12.275391 L 11.580078 14.1875 C 11.972654 14.561246 11.996045 15.179704 11.632812 15.582031 L 9.4785156 17.96875 L 11.712891 20.244141 C 11.90548 20.4395 12.00058 20.694836 12 20.949219 C 11.998226 20.692902 12.094572 20.43501 12.289062 20.238281 L 14.523438 17.980469 L 12.283203 15.679688 C 11.895544 15.280174 11.908712 14.641016 12.3125 14.257812 L 14.402344 12.275391 C 14.584878 12.101755 14.826219 12.0034 15.078125 12 C 15.348337 11.996901 15.6083 12.103285 15.798828 12.294922 L 18.007812 14.515625 L 19 13.498047 L 19 6.7285156 L 15 3 L 5 3 z M 12 20.951172 C 11.99993 20.967865 11.991135 20.983327 11.990234 21 L 12.009766 21 C 12.008789 20.983347 12.000147 20.967849 12 20.951172 z "
     />
  <path
     style="fill:#808080"
     d="M 5,2 C 4.446,2 4,2.446 4,3 v 9.498047 l 1,1.003906 V 3 h 9 v 4 c 0,0.554 0.446,1 1,1 h 4 v 5.498047 l 1,-1.025391 V 10.890625 7.25 7.0410156 C 20,6.5903357 20.098038,6.6156035 19.394531,5.9746094 L 16.087891,2.7363281 C 15.378366,1.9994706 15.377722,2 14.994141,2 H 14.662109 14 Z M 7.5,5 C 7.223,5 7,5.223 7,5.5 7,5.777 7.223,6 7.5,6 h 4 C 11.777,6 12,5.777 12,5.5 12,5.223 11.777,5 11.5,5 Z m 0,4 C 7.223,9 7,9.223 7,9.5 7,9.777 7.223,10 7.5,10 h 2 C 9.777,10 10,9.777 10,9.5 10,9.223 9.777,9 9.5,9 Z m 4.490234,12 c -0.01286,0.238037 -0.101243,0.472784 -0.283203,0.654297 L 11.359375,22 h 1.291016 L 12.298828,21.654297 C 12.114957,21.473388 12.023756,21.238654 12.009766,21 Z M 6.0117188,21.367188 5.4121094,22 h 1.1992187 z m 12.0000002,0 L 17.412109,22 h 1.199219 z"
     />
  <path
     d="m 15,7 h 4 L 15,3 Z"
     style="fill:#ffffff" />
  <path
     style="fill:#e68497"
     d="M 3.0898438 13 L 1 14.982422 L 3.9257812 17.986328 L 1 20.941406 L 3.0898438 23 L 6.0117188 19.912109 L 8.9394531 23 L 11 20.945312 L 8.1054688 17.998047 L 10.890625 14.912109 L 8.8828125 13 L 6.015625 15.941406 L 3.0898438 13 z M 15.089844 13 L 13 14.982422 L 15.925781 17.986328 L 13 20.941406 L 15.089844 23 L 18.011719 19.912109 L 20.939453 23 L 23 20.945312 L 20.105469 17.998047 L 22.890625 14.912109 L 20.882812 13 L 18.015625 15.941406 L 15.089844 13 z "
     />
  <path
     style="fill:#d65532"
     d="M 12.5 9 C 12.223 9 12 9.223 12 9.5 C 12 9.777 12.223 10 12.5 10 L 16.5 10 C 16.777 10 17 9.777 17 9.5 C 17 9.223 16.777 9 16.5 9 L 12.5 9 z M 7.5 12 C 7.223 12 7 12.223 7 12.5 C 7 12.772872 7.2170322 12.991536 7.4882812 12.998047 L 8.1660156 12.302734 C 8.3570583 12.106301 8.6091128 12.004941 8.8632812 12 L 7.5 12 z M 8.8632812 12 C 9.1174497 11.995059 9.3737321 12.086531 9.5722656 12.275391 L 10.333984 13 L 13.5 13 C 13.562325 13 13.620849 12.985497 13.675781 12.964844 L 13.960938 12.695312 C 13.96118 12.694737 13.960697 12.693936 13.960938 12.693359 C 13.985714 12.633961 14 12.568584 14 12.5 C 14 12.223 13.777 12 13.5 12 L 8.8632812 12 z M 9.5097656 18 L 10.490234 19 L 11.513672 19 C 11.78363 19 12 18.78363 12 18.513672 L 12 18.486328 C 12 18.216366 11.78363 18 11.513672 18 L 9.5097656 18 z "
     />
</svg>
